X: 1
T: \vSano Du\vso  [C]
T: (Waltz)
O: Srbija
R: waltz
M: 3/4
L: 1/8
Z: John Chambers <jc:trillian.mit.edu>
N: This song is traditionally sung in both waltz and lesnoto rhythms.
K: C
|: "Fm"[c_A][cA] [c2A] [c2A] | "G"[BG][_AF] [GE][AF] ([BG][cA]) |  "Fm"[BG][_AF] [B2G] [A2F] | "C"[G2E] [G4E] :|
w: 1.~\vSa-no du-\vso, \vSa-no mo-*ri,* ot-vo-ri mi vra-ta.
w: 2.~Noc' li ho-di, div-no \vSa-*no,* ja si tu-ga vi-jem.
w: 3.~Tvo-je li-ce be-lo, \vSa-*no,* sneg je za pla-ni-ne.
[| "F"[=AF][AF] [A2F] [A2F] | [AF][GE] ([AF][BG]) [c2A] | "G7"[GE][AF] [G2E] [F2D] | "C"[E2C] [E4C] |]
w:    Ot-vo-ri mi, \vSa-no, vra-*ta, da ti dam du-ka-ta.
w:    U-ba-vi-nja tvo-ja, \vSa-*no, ne da mi da spi-jem.
w:    Tvo-je c'e-lo gi-di, \vSa-*no, ka-ko me-se-c'i-ne.
[| "C"[EC][FD] [G2E] [FD][EC] | "Dm"[DB,][D2B,] [A4F] | "G7"[GE][AF] [G2E] [F2D] | "C"[E2C] [E4C] |
w:    Oj, le le le le le le le, iz-go-re za te-be,
|  "C"[EC][FD] [G2E] ([FD][EC]) | "Dm"[D2B,] [A4F] | "G7"([GE][AF]) [G2E] [F2D] | "C"[E2C] [E4C] |]
w:    Iz-go-re mi,* \vSa-no, sr-*ce za te-be.
